src/assets/bold/lm-annotation-bold.svg

<svg width="24" height="24" viewBox="0 0 24 24" fill="none" xmlns="http://www.w3.org/2000/svg" fill="currentColor">
<path d="M7.77773 5.34884C7.28551 5.34884 6.88649 5.74787 6.88649 6.24008C6.88649 6.7323 7.28551 7.13133 7.77773 7.13133H7.7789C8.27112 7.13133 8.67014 6.7323 8.67014 6.24008C8.67014 5.74787 8.27112 5.34884 7.7789 5.34884H7.77773Z" fill="black"/>
<path d="M4.50042 6.24008C4.50042 5.74787 4.89944 5.34884 5.39166 5.34884C5.88388 5.34884 6.28345 5.74787 6.28345 6.24008C6.28345 6.7323 5.88443 7.13133 5.39221 7.13133C4.89999 7.13133 4.50042 6.7323 4.50042 6.24008Z" fill="black"/>
<path d="M10.1638 5.34884C9.67159 5.34884 9.27257 5.74787 9.27257 6.24008C9.27257 6.7323 9.67212 7.13133 10.1643 7.13133C10.6566 7.13133 11.0556 6.7323 11.0556 6.24008C11.0556 5.74787 10.656 5.34884 10.1638 5.34884Z" fill="black"/>
<path d="M2 4.85596C2 3.20084 3.55328 2 5.25302 2H10.3026C12.0022 2 13.5557 3.19999 13.5557 4.85595V7.62418C13.5557 9.27804 12.0063 10.4771 10.3092 10.4801V12.1775C10.3092 12.4034 10.1779 12.6087 9.97279 12.7034C9.76772 12.7981 9.52629 12.765 9.3543 12.6186L6.84289 10.4801H5.25302C3.55408 10.4801 2 9.27949 2 7.62418V4.85596ZM5.25302 3.15861C4.01174 3.15861 3.15861 4.00819 3.15861 4.85596V7.62418C3.15861 8.47194 4.01232 9.32153 5.25302 9.32153H7.05612C7.19375 9.32153 7.32689 9.37054 7.43168 9.45977L9.15056 10.9234V9.90084C9.15056 9.5809 9.40992 9.32153 9.72986 9.32153H10.3027C11.5441 9.32153 12.3971 8.47258 12.3971 7.62418V4.85598C12.3971 4.00758 11.544 3.15861 10.3026 3.15861H5.25302Z" fill="black"/>
<path d="M18.2244 6.34585L6.74686 17.8643C6.66775 17.9437 6.61336 18.0444 6.59031 18.1541L5.94863 21.2069C5.94488 21.2248 5.94198 21.2427 5.93993 21.2608L5.9292 21.3554C5.90822 21.5405 5.97753 21.7244 6.11547 21.8496C6.25341 21.9748 6.44314 22.0261 6.62536 21.9873L9.76202 21.3201C9.87175 21.2968 9.97235 21.242 10.0516 21.1626C13.8798 17.3256 17.7065 13.4906 21.5378 9.65929C22.154 9.04307 22.1541 8.03802 21.5378 7.42181L20.4619 6.34583C19.8456 5.72963 18.8406 5.72961 18.2244 6.34585ZM7.97778 18.2705L16.7838 9.43629L18.4624 11.0979C15.8241 13.7389 12.2782 17.2905 9.64104 19.9337L7.97778 18.2705ZM17.6016 8.61557L19.0436 7.16511C19.2074 7.00179 19.479 7.0015 19.6426 7.16513L20.7186 8.24112C20.8823 8.40483 20.8823 8.67625 20.7186 8.84003C19.9363 9.62232 20.0633 9.49567 19.2813 10.2782L17.6016 8.61557ZM8.47757 20.4088L7.24522 20.6709L7.50479 19.436L8.47757 20.4088Z" fill="black"/>
</svg>

<svg xmlns="http://www.w3.org/2000/svg" width="24" height="24" fill="currentColor" viewBox="0 0 24 24">
  <path d="M7.778 5.349a.891.891 0 0 0 0 1.782.891.891 0 0 0 0-1.782ZM4.5 6.24a.891.891 0 1 1 1.783 0 .891.891 0 0 1-1.783 0Zm5.664-.891a.891.891 0 1 0 0 1.782.891.891 0 0 0 0-1.782Z"/>
  <path d="M2 4.856C2 3.201 3.553 2 5.253 2h5.05c1.7 0 3.253 1.2 3.253 2.856v2.768c0 1.654-1.55 2.853-3.247 2.856v1.697a.58.58 0 0 1-.955.442L6.843 10.48h-1.59C3.554 10.48 2 9.28 2 7.624V4.856Zm3.253-1.697c-1.241 0-2.094.85-2.094 1.697v2.768c0 .848.853 1.698 2.094 1.698h1.803a.58.58 0 0 1 .376.138l1.719 1.463V9.901c0-.32.259-.58.579-.58h.573c1.241 0 2.094-.848 2.094-1.697V4.856c0-.848-.853-1.697-2.094-1.697h-5.05Zm12.971 3.187L6.747 17.864a.58.58 0 0 0-.157.29l-.641 3.053a.581.581 0 0 0-.01.054l-.01.094a.58.58 0 0 0 .696.632l3.137-.667a.58.58 0 0 0 .29-.157c3.828-3.837 7.654-7.672 11.486-11.504a1.585 1.585 0 0 0 0-2.237l-1.076-1.076a1.585 1.585 0 0 0-2.238 0ZM7.978 18.27l8.806-8.834 1.678 1.662c-2.638 2.64-6.184 6.193-8.821 8.836L7.978 18.27Zm9.624-9.654 1.442-1.45a.427.427 0 0 1 .599 0l1.076 1.075a.427.427 0 0 1 0 .599l-1.438 1.438-1.68-1.662ZM8.478 20.409l-1.233.262.26-1.235.973.973Z"/>
</svg>
